source/img/icon-mail-desktop.svg

<svg xmlns="http://www.w3.org/2000/svg" width="50" height="50" fill="none">
  <circle cx="25" cy="25" r="25" fill="#FFBD30"/>
  <path fill="#161C35" d="M18.2593 20.6003l6 3.7604c.2016.126.4624.1857.7248.1857s.5232-.0597.7248-.1857l5.9999-3.7604c.3912-.2455.7609-1.2003.0433-1.2003H18.2169c-.7176 0-.348.9548.0424 1.2003zm13.6312 2.0561l-6.1816 3.7585c-.272.1662-.4624.1858-.7248.1858s-.4528-.0196-.7248-.1858c-.272-.1661-5.7064-3.4897-6.1504-3.7594-.312-.1904-.3088.0326-.3088.2044v6.8068c0 .392.4528.9333.8.9333h12.8c.3472 0 .8-.5413.8-.9333v-6.8059c0-.1717.0032-.3948-.3096-.2044z"/>
</svg>

<svg width="50" height="50" viewBox="0 0 50 50" fill="none" xmlns="http://www.w3.org/2000/svg">
<circle cx="25" cy="25" r="25" fill="#FFBD30"/>
<path d="M18.2593 20.6003L24.2593 24.3607C24.4609 24.4867 24.7217 24.5464 24.9841 24.5464C25.2465 24.5464 25.5073 24.4867 25.7089 24.3607L31.7088 20.6003C32.1 20.3548 32.4697 19.4 31.7521 19.4H18.2169C17.4993 19.4 17.8689 20.3548 18.2593 20.6003ZM31.8905 22.6564L25.7089 26.4149C25.4369 26.5811 25.2465 26.6007 24.9841 26.6007C24.7217 26.6007 24.5313 26.5811 24.2593 26.4149C23.9873 26.2488 18.5529 22.9252 18.1089 22.6555C17.7969 22.4651 17.8001 22.6881 17.8001 22.8599V29.6667C17.8001 30.0587 18.2529 30.6 18.6001 30.6H31.4001C31.7473 30.6 32.2001 30.0587 32.2001 29.6667V22.8608C32.2001 22.6891 32.2033 22.466 31.8905 22.6564Z" fill="#161C35"/>
</svg>
